src/next/cmd/32/hu/underline.svg

<svg height="32" viewBox="0 0 8.4666665 8.466667" width="32" xmlns="http://www.w3.org/2000/svg" xmlns:xlink="http://www.w3.org/1999/xlink"><linearGradient id="a" gradientUnits="userSpaceOnUse" x1="9.983846" x2="21.177059" y1="10.412285" y2="20.600986"><stop offset="0" stop-color="#3b3e22"/><stop offset="1" stop-color="#454545" stop-opacity="0"/></linearGradient><linearGradient id="b" gradientUnits="userSpaceOnUse" x1="15.395049" x2="16.421385" y1="27.139996" y2="3.534248"><stop offset="0" stop-color="#555"/><stop offset="1"/></linearGradient><g transform="scale(.25)"><path d="m28.832363 26.24708v.682514h-9.160055v-.682514q1.436872-.03592 1.975699-.287374.538826-.251453.538826-.933966 0-.862123-.682514-2.40676l-1.472793-3.448491h-9.411507l-1.6524021 4.202848q-.2873742.754358-.2873742 1.40095 0 1.472793 2.4426813 1.472793v.682514h-7.1125132v-.682514q1.329106-.07184 2.0475417-1.00581.7543574-.969888 2.4067595-4.885362l7.471731-17.637596h.718436l8.944524 20.403573q.862122 1.975698 1.436871 2.514525.574749.538827 1.796089.61067zm-17.601674-8.549384h8.297932l-4.166927-9.8784908z" fill="url(#b)" stroke-width=".853387" transform="scale(1.0311756 .96976693)"/><rect fill="#0e0e0e" height="2.116674" rx=".472075" ry=".9247" width="27.516666" x="3.175" y="28.574993"/><path d="m16.610315 2.8866455-6.6264687 14.7091805a18.655369 8.1437855 0 0 0 5.3190547.342098 18.655369 8.1437855 0 0 0 8.313705-.857312l-6.615617-14.1939665zm-.762744 4.44469a.26609959.2502528 0 0 1 .239262.153996l4.295862 9.5802935a.26609959.2502528 0 0 1 -.245463.346749h-8.555551a.26609959.2502528 0 0 1 -.245979-.346749l4.259688-9.5802935a.26609959.2502528 0 0 1 .225826-.153479.26609959.2502528 0 0 1 .02636-.000517z" fill="url(#a)"/></g></svg>

<?xml version="1.0" encoding="UTF-8" standalone="no"?>
<svg
   xmlns:dc="http://purl.org/dc/elements/1.1/"
   xmlns:cc="http://creativecommons.org/ns#"
   xmlns:rdf="http://www.w3.org/1999/02/22-rdf-syntax-ns#"
   xmlns:svg="http://www.w3.org/2000/svg"
   xmlns="http://www.w3.org/2000/svg"
   xmlns:sodipodi="http://sodipodi.sourceforge.net/DTD/sodipodi-0.dtd"
   xmlns:inkscape="http://www.inkscape.org/namespaces/inkscape"
   height="32"
   viewBox="0 0 8.4666665 8.466667"
   width="32"
   version="1.1"
   id="svg20"
   sodipodi:docname="underline.svg"
   inkscape:version="0.92.4 (unknown)"
   inkscape:export-filename="/home/rizmut/Dokumen/Rizmut/Github/libreoffice-style-karasa-jaga/build/next/cmd/32/hu/underline.png"
   inkscape:export-xdpi="96"
   inkscape:export-ydpi="96">
  <metadata
     id="metadata26">
    <rdf:RDF>
      <cc:Work
         rdf:about="">
        <dc:format>image/svg+xml</dc:format>
        <dc:type
           rdf:resource="http://purl.org/dc/dcmitype/StillImage" />
        <dc:title></dc:title>
      </cc:Work>
    </rdf:RDF>
  </metadata>
  <defs
     id="defs24" />
  <sodipodi:namedview
     pagecolor="#ffffff"
     bordercolor="#666666"
     borderopacity="1"
     objecttolerance="10"
     gridtolerance="10"
     guidetolerance="10"
     inkscape:pageopacity="0"
     inkscape:pageshadow="2"
     inkscape:window-width="1366"
     inkscape:window-height="714"
     id="namedview22"
     showgrid="true"
     inkscape:zoom="10.429825"
     inkscape:cx="20.980742"
     inkscape:cy="26.484584"
     inkscape:window-x="0"
     inkscape:window-y="28"
     inkscape:window-maximized="1"
     inkscape:current-layer="g37">
    <inkscape:grid
       type="xygrid"
       id="grid28" />
  </sodipodi:namedview>
  <linearGradient
     id="a"
     gradientUnits="userSpaceOnUse"
     x1="9.9838457"
     x2="21.177059"
     y1="10.412285"
     y2="20.600986">
    <stop
       offset="0"
       stop-color="#3b3e22"
       id="stop2" />
    <stop
       offset="1"
       stop-color="#454545"
       stop-opacity="0"
       id="stop4" />
  </linearGradient>
  <linearGradient
     id="b"
     gradientUnits="userSpaceOnUse"
     x1="15.395049"
     x2="16.421385"
     y1="27.139996"
     y2="3.5342481">
    <stop
       offset="0"
       stop-color="#555"
       id="stop7" />
    <stop
       offset="1"
       id="stop9" />
  </linearGradient>
  <g
     id="g37"
     transform="scale(0.25)">
    <g
       aria-label="A"
       transform="scale(1.0311756,0.96976693)"
       style="font-size:34.13547516px;font-family:sans-serif;letter-spacing:0;word-spacing:0;fill:url(#b);stroke-width:0.853387"
       id="text14">
      <path
         d="m 28.832363,26.24708 v 0.682514 H 19.672308 V 26.24708 q 1.436872,-0.03592 1.975699,-0.287374 0.538826,-0.251453 0.538826,-0.933966 0,-0.862123 -0.682514,-2.40676 l -1.472793,-3.448491 h -9.411507 l -1.6524021,4.202848 q -0.2873742,0.754358 -0.2873742,1.40095 0,1.472793 2.4426813,1.472793 v 0.682514 H 4.0104108 V 26.24708 q 1.329106,-0.07184 2.0475417,-1.00581 0.7543574,-0.969888 2.4067595,-4.885362 L 15.936443,2.718312 h 0.718436 l 8.944524,20.403573 q 0.862122,1.975698 1.436871,2.514525 0.574749,0.538827 1.796089,0.61067 z M 11.230689,17.697696 h 8.297932 L 15.361694,7.8192052 Z"
         style="font-size:35.92178345px;font-family:FreeSerif;fill:url(#b);stroke-width:0.853387"
         id="path39" />
    </g>
    <rect
       id="rect16"
       y="28.574993"
       x="3.175"
       width="27.516666"
       ry="0.92470002"
       rx="0.47207499"
       height="2.1166739"
       style="fill:#0e0e0e" />
    <path
       id="path18"
       d="M 16.610315,2.8866455 9.9838463,17.595826 a 18.655369,8.1437855 0 0 0 5.3190547,0.342098 18.655369,8.1437855 0 0 0 8.313705,-0.857312 L 17.000989,2.8866455 Z m -0.762744,4.44469 a 0.26609959,0.2502528 0 0 1 0.239262,0.153996 l 4.295862,9.5802935 a 0.26609959,0.2502528 0 0 1 -0.245463,0.346749 H 11.581681 A 0.26609959,0.2502528 0 0 1 11.335702,17.065625 L 15.59539,7.4853315 a 0.26609959,0.2502528 0 0 1 0.225826,-0.153479 0.26609959,0.2502528 0 0 1 0.02636,-5.17e-4 z"
       style="fill:url(#a)"
       inkscape:connector-curvature="0" />
  </g>
</svg>
